X:9
T:Colinda (from Larry Miller)
R:Two-Step
M:8/4
L:1/8
Q:1/4=130
K:C
G2c2d2 | e3ee2e4 c2d2e2 |f3ee2d4 G2B2c2 | d3dd2d4 d2e2d2 | B3BA2G4 |]
"14>"[Gg][Gg]"2>"cc "14<"[Dd][Dd] |[E3e3][Ee][E2e2][E4e4] "2>"cc"14<"[Dd][Dd] [Ee][Ee] |[F3f3][Ee][E2e2][D4d4]  \
"14>"[Gg][Gg]"2<"BB "14>"[Cc][Cc] |[D3d3][Dd][D2d2][D4d4] [Dd][Dd][Ee][Ee] [Dd][Dd] |"14<"[B,3B3]"2<"B"1<"A2"14>"[G4g4]|]
